editor/icons/Basis.svg

<svg height="12" viewBox="0 0 16 12" width="16" xmlns="http://www.w3.org/2000/svg"><path d="m0 2v8h2a3 3 0 0 0 3-3 3 3 0 0 0 -3-3v-2zm10 0v2h2v-2zm-3 2a2 2 0 0 0 -1.7324 1 2 2 0 0 0 0 2 2 2 0 0 0 1.7324 1h-2v2h2a2 2 0 0 0 1.7324-1 2 2 0 0 0 0-2 2 2 0 0 0 -1.7324-1h2v-2zm7 0a2 2 0 0 0 -1.7324 1 2 2 0 0 0 0 2 2 2 0 0 0 1.7324 1h-2v-2h-2v4h4a2 2 0 0 0 1.7324-1 2 2 0 0 0 0-2 2 2 0 0 0 -1.7324-1h2v-2zm-12 2a1 1 0 0 1 1 1 1 1 0 0 1 -1 1z" fill="#e1ec41"/><path d="m10 2v2h2v-2zm0 4v4h2v-4z" fill="#fff" fill-opacity=".39216"/></svg>

<svg height="12" viewBox="0 0 16 12" width="16" xmlns="http://www.w3.org/2000/svg"><path d="M0 2v8h2a3 3 0 0 0 0-6V2zm10 0v2h2V2zM7 4a2 2 0 0 0 0 4H5v2h2a2 2 0 0 0 0-4h2V4zm7 0a2 2 0 0 0 0 4h-2V6h-2v4h4a2 2 0 0 0 0-4h2V4zM2 6a1 1 0 0 1 1 1 1 1 0 0 1-1 1z" fill="#e1ec41"/><path d="M10 2v2h2V2zm0 4v4h2V6z" fill="#fff" fill-opacity=".4"/></svg>
